; generated by PrusaSlicer 2.9.4 on 2026-03-03 at 03:11:06 UTC


;
;
; 

; external perimeters extrusion width = 0.45mm
; perimeters extrusion width = 0.45mm
; infill extrusion width = 0.45mm
; solid infill extrusion width = 0.45mm
; top infill extrusion width = 0.40mm
; support material extrusion width = 0.35mm
; first layer extrusion width = 0.42mm

M73 P0 R19
M73 Q0 S19
M201 X1000 Y1000 Z200 E5000 ; sets maximum accelerations, mm/sec^2
M203 X200 Y200 Z12 E120 ; sets maximum feedrates, mm / sec
M204 S1250 T1250 ; sets acceleration (S) and retract acceleration (R), mm/sec^2
M205 X8.00 Y8.00 Z0.40 E4.50 ; sets the jerk limits, mm/sec
M205 S0 T0 ; sets the minimum extruding and travel feed rate, mm/sec

; printing object Body1 id:0 copy 0
; stop printing object Body1 id:0 copy 0

;TYPE:Custom
M862.3 P "MK3S" ; printer model check
M862.1 P0.4 ; nozzle diameter check
M115 U3.14.1 ; tell printer latest fw version
G90 ; use absolute coordinates
M83 ; extruder relative mode
M104 S215 ; set extruder temp
M140 S60 ; set bed temp
M190 S60 ; wait for bed temp
M109 S215 ; wait for extruder temp
G28 W ; home all without mesh bed level
G80 X108.921 Y77.565 W25.4512 H54.4463 ; mesh bed levelling

G1 Z0.2 F720
G1 Y-3 F1000 ; go outside print area
G92 E0
G1 X60 E9 F1000 ; intro line
G1 X100 E12.5 F1000 ; intro line

G92 E0
M221 S95

; Don't change E values below. Excessive value can damage the printer.

M907 E538 ; set extruder motor current
G21 ; set units to millimeters
G90 ; use absolute coordinates
M83 ; use relative distances for extrusion

M900 K0.05 ; Filament gcode LA 1.5
M900 K30 ; Filament gcode LA 1.0




M107
;LAYER_CHANGE
;Z:0.2
;HEIGHT:0.2
G1 E-.8 F2100
G1 Z.6 F720
G1 X113.955 Y79.223 F10800
G1 Z.2 F720
G1 E.8 F2100
M204 S800
;TYPE:Skirt/Brim
;WIDTH:0.42
G1 F1200
G1 X114.585 Y78.564 E.02859
G1 X115.104 Y78.225 E.01944
G1 X115.741 Y77.966 E.02156
G1 X116.635 Y77.787 E.02859
G1 X126.056 Y77.754 E.29539
G1 X127.124 Y77.859 E.03365
G1 X127.945 Y78.112 E.02694
G1 X128.659 Y78.525 E.02586
G1 X129.229 Y79.08 E.02494
G1 X129.647 Y79.716 E.02386
G1 X129.991 Y80.526 E.02759
G1 X130.695 Y83.566 E.09784
G1 X131.798 Y90.392 E.2168
G1 X132.871 Y98.872 E.268
G1 X133.326 Y103.185 E.13598
G1 X133.971 Y111.941 E.27528
G1 X134.183 Y117.976 E.18934
G1 X134.101 Y119.631 E.05196
G1 X133.889 Y120.799 E.03722
G1 X133.52 Y122.172 E.04458
G1 X133.052 Y123.426 E.04197
G1 X132.512 Y124.543 E.0389
G1 X131.612 Y126.015 E.0541
G1 X130.846 Y127.042 E.04017
G1 X130 Y128.014 E.0404
G1 X129.127 Y128.867 E.03827
G1 X128.232 Y129.603 E.03633
G1 X127.244 Y130.276 E.03748
G1 X126.165 Y130.857 E.03842
G1 X124.913 Y131.349 E.04218
G1 X123.968 Y131.603 E.03068
G1 X122.902 Y131.773 E.03385
G1 X121.075 Y131.823 E.05731
G1 X120.322 Y131.765 E.02368
G1 X118.664 Y131.436 E.053
G1 X117.096 Y130.841 E.05258
G1 X115.602 Y129.988 E.05394
G1 X114.093 Y128.798 E.06026
G1 X112.498 Y127.105 E.07293
G1 X111.273 Y125.391 E.06606
G1 X110.452 Y123.891 E.05362
G1 X109.78 Y122.191 E.05732
G1 X109.235 Y119.93 E.07292
M73 Q1 S19
G1 X109.11 Y117.976 E.06139
G1 X109.493 Y108.989 E.28204
M73 P1 R19
G1 X109.791 Y105.099 E.12233
G1 X110.372 Y99.318 E.18217
G1 X111.173 Y92.774 E.20671
G1 X112.359 Y84.845 E.25137
G1 X113.229 Y80.777 E.13043
G1 X113.543 Y79.925 E.02847
G1 X113.925 Y79.274 E.02367
M204 S1000
;WIPE_START
G1 F8640
G1 X113.955 Y79.223 E-.01366
G1 X114.585 Y78.564 E-.21051
G1 X115.104 Y78.225 E-.14314
G1 X115.741 Y77.966 E-.15878
G1 X116.635 Y77.787 E-.21052
G1 X116.91 Y77.786 E-.06339
;WIPE_END
G1 Z.6 F720
; printing object Body1 id:0 copy 0
G1 X117.529 Y127.185 F10800
G1 Z.2 F720
G1 E.8 F2100
M204 S800
;TYPE:Perimeter
;WIDTH:0.419999
G1 F1200
G1 X116.922 Y126.736 E.02367
G1 X116.34 Y126.238 E.02402
G1 X115.792 Y125.697 E.02414
G1 X115.455 Y125.326 E.01572
G1 X114.804 Y124.521 E.03246
G1 X114.51 Y124.112 E.01579
G1 X114.144 Y123.551 E.021
G1 X113.811 Y122.976 E.02083
G1 X113.512 Y122.384 E.02079
G1 X113.251 Y121.773 E.02083
G1 X113.041 Y121.186 E.01955
G1 X112.757 Y120.135 E.03414
G1 X112.656 Y119.566 E.01812
G1 X112.547 Y118.116 E.04559
G1 X112.618 Y114.967 E.09876
G1 X112.794 Y111.139 E.12015
G1 X113.051 Y107.316 E.12014
G1 X113.387 Y103.5 E.12011
G1 X113.794 Y99.686 E.12026
G1 X114.182 Y96.459 E.10191
G1 X114.598 Y93.239 E.1018
G1 X115.057 Y89.95 E.10412
G1 X115.567 Y86.67 E.10408
G1 X116.014 Y84.219 E.07812
G1 X116.268 Y83.009 E.03877
G1 X116.594 Y81.713 E.0419
G1 X116.684 Y81.511 E.00693
G1 X116.891 Y81.315 E.00894
G1 X117.259 Y81.233 E.01182
G1 X126.116 Y81.246 E.2777
G1 X126.398 Y81.319 E.00913
G1 X126.621 Y81.523 E.00948
G1 X126.718 Y81.784 E.00873
G1 X127.025 Y83.009 E.0396
G1 X127.28 Y84.219 E.03877
G1 X127.726 Y86.669 E.07808
G1 X128.367 Y90.858 E.13287
G1 X128.934 Y95.059 E.13291
G1 X129.452 Y99.277 E.13325
G1 X129.907 Y103.5 E.13318
G1 X130.166 Y106.362 E.0901
G1 X130.381 Y109.226 E.09005
G1 X130.55 Y112.095 E.09011
G1 X130.675 Y114.966 E.0901
G1 X130.736 Y117.682 E.08518
G1 X130.709 Y118.647 E.03027
G1 X130.7 Y119.264 E.01935
G1 X130.565 Y120.022 E.02414
G1 X130.397 Y120.706 E.02208
G1 X130.105 Y121.608 E.02973
G1 X129.737 Y122.477 E.02959
G1 X129.294 Y123.31 E.02958
G1 X128.782 Y124.114 E.02989
G1 X128.489 Y124.521 E.01572
G1 X127.842 Y125.322 E.03228
G1 X127.193 Y126.01 E.02965
G1 X126.551 Y126.59 E.02713
G1 X125.763 Y127.188 E.03102
G1 X125.835 Y127.009 E.00605
G1 X125.957 Y126.508 E.01617
G1 X126.014 Y126.002 E.01597
G1 X126.011 Y125.493 E.01596
G1 X125.949 Y124.988 E.01595
G1 X125.829 Y124.494 E.01594
G1 X125.653 Y124.017 E.01594
G1 X125.422 Y123.563 E.01597
G1 X125.139 Y123.139 E.01598
G1 X124.81 Y122.751 E.01595
G1 X124.437 Y122.404 E.01597
G1 X124.026 Y122.102 E.01599
G1 X123.584 Y121.85 E.01595
G1 X123.114 Y121.652 E.01599
G1 X122.625 Y121.509 E.01597
G1 X122.123 Y121.424 E.01596
G1 X121.614 Y121.398 E.01598
G1 X121.105 Y121.432 E.01599
G1 X120.604 Y121.524 E.01597
G1 X120.117 Y121.674 E.01598
G1 X119.651 Y121.88 E.01598
G1 X119.212 Y122.138 E.01597
G1 X118.806 Y122.446 E.01598
G1 X118.439 Y122.799 E.01597
G1 X118.115 Y123.192 E.01597
G1 X117.839 Y123.62 E.01597
G1 X117.615 Y124.077 E.01596
G1 X117.445 Y124.557 E.01597
G1 X117.333 Y125.053 E.01594
G1 X117.279 Y125.559 E.01596
G1 X117.283 Y126.068 E.01596
G1 X117.35 Y126.579 E.01616
G1 X117.512 Y127.128 E.01795
M204 S1000
;WIPE_START
G1 F8640
G1 X117.529 Y127.185 E-.01373
G1 X116.922 Y126.736 E-.17434
G1 X116.34 Y126.238 E-.17687
G1 X115.792 Y125.697 E-.17781
G1 X115.455 Y125.326 E-.11573
G1 X115.07 Y124.849 E-.14152
;WIPE_END
G1 Z.6 F720
G1 X119.131 Y128.61 F10800
G1 Z.2 F720
G1 E.8 F2100
M204 S800
;TYPE:External perimeter
;WIDTH:0.420276
G1 F1200
G1 X118.808 Y128.494 E.01077
G1 X118.271 Y128.259 E.01839
G1 X117.659 Y127.751 E.02496
;WIDTH:0.419999
G1 X116.686 Y127.031 E.03795
G1 X116.084 Y126.515 E.02486
G1 X115.52 Y125.958 E.02485
G1 X115.169 Y125.572 E.01636
G1 X114.463 Y124.693 E.03535
G1 X114.172 Y124.283 E.01576
G1 X113.765 Y123.648 E.02365
G1 X113.442 Y123.081 E.02046
G1 X113.13 Y122.449 E.0221
G1 X112.865 Y121.812 E.02163
G1 X112.652 Y121.201 E.02029
G1 X112.473 Y120.575 E.02041
G1 X112.325 Y119.891 E.02194
G1 X112.237 Y119.177 E.02256
G1 X112.17 Y118.108 E.03358
G1 X112.242 Y114.954 E.09892
G1 X112.418 Y111.117 E.12043
G1 X112.675 Y107.287 E.12036
G1 X113.012 Y103.463 E.12036
G1 X113.419 Y99.643 E.12045
G1 X113.808 Y96.412 E.10204
G1 X114.224 Y93.189 E.10189
G1 X114.684 Y89.895 E.10428
G1 X115.196 Y86.607 E.10434
G1 X115.644 Y84.146 E.07843
G1 X115.901 Y82.924 E.03915
M73 Q2 S19
G1 X116.273 Y81.443 E.04788
G1 X116.374 Y81.297 E.00557
G1 X116.58 Y81.08 E.00938
G1 X116.827 Y80.935 E.00898
G1 X117.238 Y80.856 E.01312
M73 P2 R19
G1 X126.267 Y80.869 E.2831
G1 X126.597 Y80.99 E.01102
G1 X126.932 Y81.296 E.01423
G1 X127.084 Y81.693 E.01333
G1 X127.393 Y82.924 E.03979
G1 X127.65 Y84.146 E.03915
G1 X128.098 Y86.607 E.07843
G1 X128.741 Y90.804 E.13313
G1 X129.308 Y95.011 E.1331
G1 X129.827 Y99.234 E.13341
G1 X130.282 Y103.463 E.13336
G1 X130.542 Y106.331 E.09029
G1 X130.757 Y109.201 E.09024
G1 X130.927 Y112.076 E.0903
G1 X131.052 Y114.954 E.09032
G1 X131.113 Y117.673 E.08527
G1 X131.086 Y118.653 E.03074
G1 X131.076 Y119.301 E.02032
G1 X130.934 Y120.1 E.02544
G1 X130.76 Y120.809 E.02289
G1 X130.459 Y121.74 E.03068
G1 X130.078 Y122.639 E.03061
G1 X129.62 Y123.5 E.03058
G1 X129.094 Y124.325 E.03068
G1 X128.789 Y124.75 E.0164
G1 X128.126 Y125.57 E.03306
G1 X127.457 Y126.28 E.03059
G1 X126.792 Y126.881 E.0281
G1 X125.636 Y127.761 E.04555
;WIDTH:0.422784
G1 X124.999 Y128.271 E.02577
G1 X124.15 Y128.616 E.02895
G1 X124.288 Y128.47 E.00635
;WIDTH:0.442891
G1 X124.979 Y127.763 E.03288
G1 X125.253 Y127.387 E.01547
;WIDTH:0.419999
G1 X125.469 Y126.916 E.01625
G1 X125.61 Y126.236 E.02177
G1 X125.638 Y125.558 E.02128
G1 X125.586 Y125.096 E.01458
G1 X125.475 Y124.622 E.01526
G1 X125.259 Y124.072 E.01853
G1 X125.007 Y123.619 E.01625
G1 X124.55 Y123.025 E.0235
G1 X124.148 Y122.658 E.01707
G1 X123.606 Y122.295 E.02045
G1 X123.027 Y122.02 E.0201
G1 X122.581 Y121.885 E.01461
G1 X122.123 Y121.803 E.01459
G1 X121.658 Y121.775 E.01461
G1 X121.193 Y121.8 E.0146
G1 X120.734 Y121.88 E.01461
G1 X120.287 Y122.013 E.01462
G1 X119.84 Y122.206 E.01527
G1 X119.347 Y122.508 E.01813
G1 X118.896 Y122.88 E.01833
G1 X118.43 Y123.399 E.02187
G1 X118.04 Y124.061 E.02409
G1 X117.812 Y124.643 E.0196
G1 X117.693 Y125.225 E.01863
G1 X117.656 Y125.823 E.01879
G1 X117.71 Y126.46 E.02004
G1 X117.824 Y126.916 E.01474
G1 X118.019 Y127.351 E.01495
;WIDTH:0.442865
G1 X118.31 Y127.759 E.01667
G1 X118.767 Y128.247 E.02223
;WIDTH:0.420276
G1 X119.089 Y128.567 E.01424
M204 S1000
;WIPE_START
G1 F8640
G1 X119.131 Y128.61 E-.01388
G1 X118.808 Y128.494 E-.07925
G1 X118.271 Y128.259 E-.13535
G1 X117.659 Y127.751 E-.18365
G1 X116.686 Y127.031 E-.27949
G1 X116.33 Y126.726 E-.10838
;WIPE_END
G1 Z.6 F720
G1 X125.508 Y81.401 F10800
G1 Z.2 F720
G1 E.8 F2100
M204 S800
;TYPE:Solid infill
;WIDTH:0.421626
G1 F1200
G1 X126.557 Y82.451 E.04674
G1 X126.729 Y83.158 E.02291
G1 X125.142 Y81.57 E.0707
G1 X124.605 Y81.569 E.01691
G1 X126.872 Y83.836 E.10096
G1 X127.006 Y84.506 E.02152
G1 X124.068 Y81.568 E.13084
G1 X123.531 Y81.567 E.01691
G1 X127.126 Y85.161 E.16007
G1 X127.245 Y85.816 E.02096
G1 X122.995 Y81.566 E.18926
G1 X122.458 Y81.565 E.01691
G1 X127.364 Y86.471 E.21848
G1 X127.469 Y87.112 E.02045
G1 X121.921 Y81.563 E.24709
G1 X121.385 Y81.562 E.01688
G1 X127.566 Y87.744 E.27528
G1 X127.663 Y88.376 E.02013
G1 X120.848 Y81.561 E.30349
G1 X120.311 Y81.56 E.01691
G1 X127.76 Y89.009 E.33173
G1 X127.857 Y89.641 E.02013
G1 X119.774 Y81.559 E.35994
G1 X119.238 Y81.558 E.01688
G1 X127.954 Y90.274 E.38815
G1 X128.051 Y90.906 E.02013
G1 X118.701 Y81.557 E.41636
G1 X118.164 Y81.555 E.01691
G1 X128.134 Y91.525 E.44399
G1 X128.217 Y92.144 E.01967
G1 X117.628 Y81.554 E.47158
G1 X117.111 Y81.573 E.01629
M73 P3 R19
M73 Q3 S19
G1 X128.301 Y92.763 E.49832
G1 X128.384 Y93.382 E.01967
G1 X116.882 Y81.88 E.51222
G1 X116.775 Y82.308 E.01389
G1 X128.468 Y94.001 E.52072
G1 X128.551 Y94.62 E.01967
G1 X116.667 Y82.736 E.52923
G1 X116.562 Y83.167 E.01397
G1 X128.633 Y95.237 E.53753
G1 X128.708 Y95.848 E.01938
G1 X116.469 Y83.609 E.54504
G1 X116.376 Y84.052 E.01425
G1 X128.783 Y96.459 E.55252
G1 X128.858 Y97.069 E.01935
G1 X116.288 Y84.5 E.55976
G1 X116.206 Y84.953 E.0145
G1 X128.933 Y97.68 E.56677
G1 X129.008 Y98.29 E.01935
G1 X116.123 Y85.406 E.57378
G1 X116.041 Y85.859 E.0145
G1 X129.083 Y98.901 E.5808
G1 X129.155 Y99.508 E.01925
G1 X115.958 Y86.312 E.58768
G1 X115.877 Y86.766 E.01452
G1 X129.219 Y100.108 E.59416
G1 X129.284 Y100.709 E.01904
M73 P4 R18
M73 Q4 S19
G1 X115.805 Y87.229 E.60028
G1 X115.733 Y87.693 E.01479
G1 X129.348 Y101.309 E.60634
G1 X129.413 Y101.909 E.019
G1 X115.661 Y88.156 E.61244
G1 X115.588 Y88.62 E.01479
G1 X129.478 Y102.509 E.61854
G1 X129.542 Y103.109 E.019
G1 X115.516 Y89.083 E.62462
G1 X115.444 Y89.547 E.01479
G1 X129.603 Y103.706 E.63054
G1 X129.657 Y104.295 E.01863
G1 X115.372 Y90.01 E.63615
G1 X115.307 Y90.48 E.01494
G1 X129.71 Y104.884 E.64143
G1 X129.763 Y105.473 E.01862
G1 X115.241 Y90.95 E.64673
G1 X115.175 Y91.42 E.01495
G1 X129.817 Y106.062 E.65205
G1 X129.866 Y106.646 E.01845
G1 X115.11 Y91.89 E.65713
G1 X115.044 Y92.36 E.01495
M73 Q4 S18
G1 X129.909 Y107.225 E.66198
G1 X129.953 Y107.804 E.01829
M73 P5 R18
M73 Q5 S18
G1 X114.979 Y92.83 E.66684
G1 X114.913 Y93.3 E.01495
G1 X129.996 Y108.384 E.67171
G1 X130.04 Y108.963 E.01829
G1 X114.852 Y93.775 E.67637
G1 X114.791 Y94.249 E.01505
G1 X130.078 Y109.537 E.6808
G1 X130.112 Y110.106 E.01795
G1 X114.729 Y94.723 E.68505
G1 X114.668 Y95.198 E.01508
G1 X130.146 Y110.675 E.68926
G1 X130.179 Y111.244 E.01795
G1 X114.607 Y95.672 E.69347
G1 X114.546 Y96.146 E.01505
G1 X130.213 Y111.813 E.6977
G1 X130.242 Y112.378 E.01782
G1 X114.485 Y96.621 E.70171
G1 X114.428 Y97.099 E.01516
G1 X130.266 Y112.938 E.70533
G1 X130.291 Y113.498 E.01765
M73 P6 R18
M73 Q6 S18
G1 X114.37 Y97.578 E.70899
G1 X114.313 Y98.056 E.01516
G1 X130.315 Y114.058 E.71262
G1 X130.339 Y114.618 E.01765
G1 X114.255 Y98.534 E.71627
G1 X114.198 Y99.012 E.01516
G1 X130.359 Y115.173 E.7197
G1 X130.372 Y115.721 E.01726
G1 X114.14 Y99.49 E.72284
G1 X114.086 Y99.971 E.01524
G1 X130.384 Y116.269 E.7258
G1 X130.396 Y116.817 E.01726
G1 X114.034 Y100.455 E.72865
G1 X113.983 Y100.939 E.01533
G1 X130.409 Y117.365 E.7315
G1 X130.421 Y117.913 E.01726
G1 X113.931 Y101.423 E.73435
G1 X113.879 Y101.907 E.01533
G1 X130.401 Y118.429 E.73577
G1 X130.384 Y118.947 E.01632
M73 P7 R18
M73 Q7 S18
G1 X113.828 Y102.391 E.73729
G1 X113.776 Y102.875 E.01533
G1 X130.343 Y119.441 E.73775
G1 X130.262 Y119.896 E.01455
G1 X113.724 Y103.359 E.73646
G1 X113.678 Y103.848 E.01547
G1 X130.16 Y120.329 E.73397
G1 X130.046 Y120.751 E.01376
G1 X113.635 Y104.34 E.73083
G1 X113.591 Y104.832 E.01555
G1 X129.915 Y121.156 E.72696
G1 X129.779 Y121.556 E.0133
G1 X113.548 Y105.324 E.72284
G1 X113.505 Y105.817 E.01558
G1 X129.62 Y121.932 E.71765
G1 X129.461 Y122.308 E.01286
G1 X113.461 Y106.309 E.7125
G1 X113.418 Y106.801 E.01555
G1 X129.277 Y122.66 E.70625
G1 X129.091 Y123.009 E.01245
M73 P8 R18
G1 X113.374 Y107.293 E.6999
G1 X113.34 Y107.794 E.01581
M73 Q8 S18
G1 X128.891 Y123.345 E.69253
G1 X128.683 Y123.673 E.01223
G1 X113.306 Y108.296 E.68478
G1 X113.273 Y108.798 E.01584
G1 X128.471 Y123.997 E.67683
G1 X128.247 Y124.308 E.01207
G1 X113.239 Y109.3 E.66835
G1 X113.205 Y109.802 E.01584
G1 X128.009 Y124.605 E.65924
G1 X127.769 Y124.902 E.01202
G1 X113.172 Y110.304 E.65007
G1 X113.138 Y110.806 E.01584
G1 X127.524 Y125.192 E.64065
G1 X127.264 Y125.467 E.01192
G1 X126.101 Y124.304 E.05179
G1 X126.274 Y125.013 E.02298
G1 X127.004 Y125.743 E.03251
G1 X126.726 Y126 E.01192
G1 X126.335 Y125.609 E.01741
G1 X126.319 Y126.129 E.01638
G1 X126.565 Y126.375 E.01096
M204 S1000
;WIPE_START
G1 F8640
G1 X126.319 Y126.129 E-.08033
G1 X126.335 Y125.609 E-.12013
G1 X126.726 Y126 E-.12768
G1 X127.004 Y125.743 E-.08742
G1 X126.274 Y125.013 E-.23838
G1 X126.124 Y124.398 E-.14606
;WIPE_END
G1 Z.6 F720
G1 X123.411 Y121.614 F10800
G1 Z.2 F720
G1 E.8 F2100
M204 S800
G1 F1200
G1 X113.107 Y111.311 E.45884
G1 X113.084 Y111.823 E.01614
G1 X122.406 Y121.145 E.41514
G1 X122.237 Y121.115 E.0054
G1 X121.813 Y121.087 E.01338
G1 X113.06 Y112.335 E.38977
G1 X113.037 Y112.847 E.01614
M73 P9 R18
G1 X121.29 Y121.1 E.36753
G1 X121.056 Y121.115 E.00738
M73 P9 R17
M73 Q9 S18
G1 X120.813 Y121.158 E.00777
G1 X113.013 Y113.359 E.34733
G1 X112.99 Y113.871 E.01614
G1 X120.377 Y121.258 E.32896
G1 X119.974 Y121.391 E.01336
G1 X112.966 Y114.383 E.31209
G1 X112.943 Y114.895 E.01614
G1 X119.598 Y121.55 E.29637
G1 X119.254 Y121.742 E.01241
G1 X112.928 Y115.415 E.28174
G1 X112.914 Y115.938 E.01647
G1 X118.929 Y121.953 E.26787
G1 X118.622 Y122.181 E.01204
G1 X112.901 Y116.46 E.25477
G1 X112.887 Y116.982 E.01644
G1 X118.347 Y122.441 E.24313
G1 X118.089 Y122.719 E.01194
G1 X112.874 Y117.504 E.23224
G1 X112.861 Y118.026 E.01644
G1 X117.852 Y123.017 E.22226
G1 X117.637 Y123.338 E.01217
G1 X112.905 Y118.606 E.21073
G1 X112.935 Y119.172 E.01785
G1 X117.449 Y123.686 E.20102
G1 X117.285 Y124.057 E.01277
G1 X113.015 Y119.787 E.19016
